**kern	**kern	**dynam
*part1	*part1	*part1
*staff2	*staff1	*
*I"Piano	*	*
*clefF4	*clefG2	*
*k[]	*k[]	*
*M3/4	*M3/4	*
=1	=1	=1
16qqD#X/	.	pp
2.AA 2.E	2.r	.
=	=	=
16qqD#X/	.	.
2.AA 2.E	2.r	.
=	=	=
2.AA 2.E	(16aLL	.
.	16cc	pp
.	16b	.
.	16ddJJ	.
.	8ccL	.
.	8a	.
.	8b	.
.	8g#XJ)	.
=	=	=
2.AA 2.E	(8aL	.
.	16ccJk)	.
.	16r	.
.	2e^ 2g#X 2b	.
=	=	=
2.AA 2.E	(8aL	.
.	16ccJk)	.
.	16r	.
.	2e^ 2g#X 2b	.
=	=	=
2.AA 2.E	(16aLL	.
.	16ee	.
.	16dd	.
.	16ffJJ	.
.	8eeL	.
.	8a	.
.	8b	.
.	8ccJ)	.
=	=	=
*^	*	*
2.AA 2.E	(4B	(8d^L 8g#X	.
.	.	16bJk)	.
.	.	16r	.
.	2A)	2c 2e	.
=	=	=	=
2.AA 2.E	(4B	(8d^L 8g#X	.
.	.	16bJk)	.
.	.	16r	.
.	2A)	2c 2e	.
*v	*v	*	*
=	=	=
*-	*-	*-
!!!system-decoration: {(s1,s2)}
